Arcticons/scalable/apps/malivebox.svg

<svg id="Layer_2" data-name="Layer 2" viewBox="0 0 48 48" xmlns="http://www.w3.org/2000/svg">
 <defs>
  <style>.cls-1{fill:none;stroke:#fff;stroke-linecap:round;stroke-linejoin:round;}</style>
 </defs>
 <path class="cls-1" d="m42.63 21.85-16.63-14.21a3 3 0 0 0-3.9 0l-3.19 2.71h-9.8v8.33l-3.74 3.17a2.43 2.43 0 0 0-0.29 3.44 2.39 2.39 0 0 0 1.92 0.87h2.09v13.29a1.63 1.63 0 0 0 1.63 1.63h26.56a1.63 1.63 0 0 0 1.63-1.63v-13.29h2.09a2.44 2.44 0 0 0 1.59-4.31zm-16.08 1.72a1 1 0 0 1-1-1v-3.83a1 1 0 0 1 1-1h3.85a1 1 0 0 1 1.05 1v3.86a1 1 0 0 1-1 1zm-2 2.07v6a1 1 0 0 1-1 1h-6a1 1 0 0 1-1-1v-6a1 1 0 0 1 1-1h6a1 1 0 0 1 0.96 1zm2 7.92h2.64a1 1 0 0 1 1 1v2.65a1 1 0 0 1-1 1h-2.64a1 1 0 0 1-1-1v-2.67a1 1 0 0 1 0.95-0.98z"/>
 <line class="cls-1" x1="24.2" x2="25.77" y1="32.33" y2="33.9"/>
 <line class="cls-1" x1="25.87" x2="24.21" y1="23.3" y2="24.96"/>
</svg>

<svg id="Layer_2" data-name="Layer 2" xmlns="http://www.w3.org/2000/svg" viewBox="0 0 48 48"><defs><style>.cls-1{fill:none;stroke:#fff;stroke-linecap:round;stroke-linejoin:round;}</style></defs><path class="cls-1" d="M42.63,21.85,26,7.64a3,3,0,0,0-3.9,0l-3.19,2.71H9.11v8.33L5.37,21.85a2.43,2.43,0,0,0-.29,3.44A2.39,2.39,0,0,0,7,26.16H9.09V39.45a1.63,1.63,0,0,0,1.63,1.63H37.28a1.63,1.63,0,0,0,1.63-1.63V26.16H41a2.44,2.44,0,0,0,1.59-4.31ZM26.55,23.57a1,1,0,0,1-1-1V18.74a1,1,0,0,1,1-1H30.4a1,1,0,0,1,1.05,1h0V22.6a1,1,0,0,1-1,1Zm-2,2.07v6a1,1,0,0,1-1,1h-6a1,1,0,0,1-1-1v-6a1,1,0,0,1,1-1h6A1,1,0,0,1,24.51,25.64Zm2,7.92h2.64a1,1,0,0,1,1,1v2.65a1,1,0,0,1-1,1H26.55a1,1,0,0,1-1-1h0V34.54A1,1,0,0,1,26.5,33.56Z"/><line class="cls-1" x1="24.2" y1="32.33" x2="25.77" y2="33.9"/><line class="cls-1" x1="25.87" y1="23.3" x2="24.21" y2="24.96"/></svg>
